X:1
T:Acht Marienlieder
T:Erhab'ne Mutter unser's Herrn
T:Max Reger
T:Erhab'ne Mutter unser's Herrn
T:Nr. 3 aus Acht Marienlieder, Op 61 d
T:CPDL - Creative Commons Attribution Non Commercial 3.0
T:CPDL - Creative Commons Attribution Non Commercial 3.0
C:Max Reger
Z:CPDL - Creative Commons Attribution Non Commercial 3.0
%%score [ 1 2 3 4 ]
L:1/8
Q:1/4=120
M:3/4
K:G
V:1 treble nm="Sopran"
V:2 treble nm="Alt"
V:3 treble-8 nm="Tenor"
V:4 bass nm="Bass"
V:1
!mf!"^Zart bewegt"!<(! D2 | (B2 d2) G2!<)! | e4 d2 | ^c4!>(! e2 | A4!>)!!p! B2 | %5
w: 1.~Er-|hab'- * ne|Mut- ter|un- ser's|Herrn, du|
!<(! (c2 e2)!<)! e2 | d4 B2 |!>(! A4 G2!>)! |!p! F4 z2 |!mf!!<(! B2 F2 B2 | (B2 ^A2)!<)! B2 | %11
w: Him- * mels-|1.~pfor- te,|Mor- gen-|stern,|hilf dei- nem|schwa- * chen|
 (^c2 e2)!>(! d2!>)! |!p! G4!<(! ^G2 | (A2 B2) c2!<)! |"^cresc." (d2 G2) A2 | (B2 c2 d2 | %16
w: Volk, _ das|1.~fiel und|von _ dem|Fall _ auf-|ste- * *|
!f![Q:1/4=120]"^ritardando" e2 cB)!>(! A2!>)! |!p! !fermata!G4 |] %18
w: * * * hen|will.|
V:2
!mf!!<(! D2 | (D2 G2) G2!<)! | G4 G2 | G4!>(! G2 | F4!>)!!p! =F2 |!<(! (E2 A2)!<)! G2 | F4 F2 | %7
w: 2.~Du|hast _ ge-|bo- ren|wun- der-|bar den,|der _ dein|2.~heil'- ger|
!>(! E4 E2!>)! |!p! ^C4 z2 |!mf!!<(! F2 F2 F2 | (G2 F2)!<)! G2 | (F2 G2)!>(! F2!>)! | %12
w: Schöp- fer|war;|du durf- test|auch _ als|Mut- * ter|
!p! (E2 D2)!<(! D2 | (C2 B,2) E2!<)! |"^cresc." (F2 E2) D2 | (D2 _E2 DA |!f! ^G2 E2)!>(! F2!>)! | %17
w: 2.~sein, _ was|vor _ du|warst: _ jung-|fräu- * * *|* * lich|
!p! !fermata!D4 |] %18
w: rein.|
V:3
!mf!!<(! D2 | (G2 B2) d2!<)! | A4 B2 | A4!>(! A2 | A4!>)!!p! ^G2 |!<(! (A2 c2)!<)! c2 | A4 d2 | %7
w: 3.~Dich|hat _ einst|Ga- bri-|el ge-|grüßt, dass|du _ die|3.~Gna- den-|
!>(! c4 B2!>)! |!p! ^A4 z2 |!mf!!<(! d2 ^A2 B2 | e4!<)! e2 | ^c4!>(! d2!>)! |!p! (=c2 G=F)!<(! E2 | %13
w: vol- le|bist;|er- wirb uns,|Mut- ter,|Got- tes|3.~Huld _ _ für|
 E4 A2!<)! |"^cresc." (A2 ^c2) =c2 | (B2 A4 |!f! B2 c2)!>(! dc!>)! |!p! !fermata!B4 |] %18
w: al- le|uns'- * re|Sün- *|* * den- *|schuld.|
V:4
!mf!!<(! D,2 | G,,4 B,,2!<)! | ^C,4 D,2 | E,4!>(! ^C,2 | D,4!>)!!p! D,2 |!<(! A,,4!<)! C,2 | %6
 D,4 D,2 |!>(! E,4 ^C,2!>)! |!p! F,4 z2 |!mf!!<(! B,,2 ^C,2 D,2 | E,4!<)! E,2 | %11
 ^A,,4!>(! B,,2!>)! |!p! (=C,2 B,,2)!<(! B,,2 | (A,,2 ^G,,2) A,,2!<)! |"^cresc." (D,2 E,2) F,2 | %15
 (G,2 F,2 =F,2 |!f! E,2 A,2)!>(! D,2!>)! |!p! !fermata!G,4 |] %18

